; HEADER_BLOCK_START
;POSTPROCESSED
; BambuStudio 01.10.01.50
; estimated printing time (normal mode) = 42m 20s
; total layer number: 90
; total filament length [mm] : 8635.57
; total filament volume [cm^3] : 20770.98
; total filament weight [g] : 25.76
; model label id: 113,133
; filament_density: 1.24
; filament_diameter: 1.75
; max_z_height: 18.00
; HEADER_BLOCK_END

; CONFIG_BLOCK_START
; accel_to_decel_enable = 0
; accel_to_decel_factor = 50%
; activate_air_filtration = 0
; additional_cooling_fan_speed = 70
; auxiliary_fan = 1
;BEGIN FilamentChange plugin
M600
 E30.00 U50.00 X0.00 Y0.00;END FilamentChange plugin
; bed_custom_model = 
; bed_custom_texture = 
; bed_exclude_area = 0x0
; before_layer_change_gcode = 
; best_object_pos = 0.5,0.5
; bottom_shell_layers = 3
; bottom_shell_thickness = 0
; bottom_surface_pattern = monotonic
; bridge_angle = 0
; bridge_flow = 1
; bridge_no_support = 0
; bridge_speed = 50
; brim_object_gap = 0.1
; brim_type = auto_brim
; brim_width = 5
; chamber_temperatures = 0
; change_filament_gcode = PAUSE
; close_fan_the_first_x_layers = 1
; complete_print_exhaust_fan_speed = 70
; cool_plate_temp = 35
; cool_plate_temp_initial_layer = 35
; curr_bed_type = High Temp Plate
; default_acceleration = 10000
; default_filament_colour = ""
; default_filament_profile = "Generic PLA @Creality"
; default_jerk = 0
; default_print_profile = 0.20mm Standard @Creality Ender3V3 0.4 nozzle
; deretraction_speed = 40
; detect_narrow_internal_solid_infill = 1
; detect_overhang_wall = 1
; detect_thin_wall = 0
; draft_shield = disabled
; during_print_exhaust_fan_speed = 70
; elefant_foot_compensation = 0.15
; enable_arc_fitting = 1
; enable_long_retraction_when_cut = 0
; enable_overhang_bridge_fan = 1
; enable_overhang_speed = 1
; enable_pressure_advance = 0
; enable_prime_tower = 0
; enable_support = 0
; enforce_support_layers = 0
; eng_plate_temp = 0
; eng_plate_temp_initial_layer = 0
; ensure_vertical_shell_thickness = 1
; exclude_object = 1
; extruder_clearance_dist_to_rod = 35
; extruder_clearance_height_to_lid = 250
; extruder_clearance_height_to_rod = 14
; extruder_clearance_max_radius = 70
; extruder_colour = #FCE94F
; extruder_offset = 0x0
; extruder_type = DirectDrive
; fan_cooling_layer_time = 100
; fan_max_speed = 100
; fan_min_speed = 100
; filament_colour = #519DF0
; filament_cost = 20
; filament_density = 1.24
; filament_diameter = 1.75
; filament_end_gcode = "; filament end gcode \nM106 P3 S0\n"
; filament_flow_ratio = 1
; filament_ids = P510eff9
; filament_is_support = 0
; filament_max_volumetric_speed = 12
; filament_minimal_purge_on_wipe_tower = 15
; filament_notes = 
; filament_scarf_gap = 0
; filament_scarf_height = 0%
; filament_scarf_length = 10
; filament_scarf_seam_type = none
; filament_settings_id = "Generic PLA template @Creality ENDER Ender-3 0.4 nozzle"
; filament_shrink = 100%
; filament_soluble = 0
; filament_start_gcode = "; filament start gcode\n{if  (bed_temperature[current_extruder] >45)||(bed_temperature_initial_layer[current_extruder] >45)}M106 P3 S255\n{elsif(bed_temperature[current_extruder] >35)||(bed_temperature_initial_layer[current_extruder] >35)}M106 P3 S180\n{endif}\n\n{if activate_air_filtration[current_extruder] && support_air_filtration}\nM106 P3 S{during_print_exhaust_fan_speed_num[current_extruder]} \n{endif}"
; filament_type = PLA
; filament_vendor = Generic
; filename_format = {input_filename_base}_{filament_type[0]}_{print_time}.gcode
; filter_out_gap_fill = 0
; first_layer_print_sequence = 0
; flush_into_infill = 0
; flush_into_objects = 0
; flush_into_support = 1
; flush_multiplier = 1
; flush_volumes_matrix = 0
; flush_volumes_vector = 140,140
; full_fan_speed_layer = 0
; fuzzy_skin = none
; fuzzy_skin_point_distance = 0.8
; fuzzy_skin_thickness = 0.3
; gap_infill_speed = 250
; gcode_add_line_number = 0
; gcode_flavor = klipper
; has_scarf_joint_seam = 0
; head_wrap_detect_zone = 
; host_type = octoprint
; hot_plate_temp = 55
; hot_plate_temp_initial_layer = 55
; independent_support_layer_height = 1
; infill_combination = 0
; infill_direction = 45
; infill_jerk = 9
; infill_wall_overlap = 15%
; initial_layer_acceleration = 500
; initial_layer_flow_ratio = 1
; initial_layer_infill_speed = 105
; initial_layer_jerk = 9
; initial_layer_line_width = 0.4
; initial_layer_print_height = 0.2
; initial_layer_speed = 50
; inner_wall_acceleration = 0
; inner_wall_jerk = 9
; inner_wall_line_width = 0.4
; inner_wall_speed = 300
; interface_shells = 0
; internal_bridge_support_thickness = 0.8
; internal_solid_infill_line_width = 0.4
; internal_solid_infill_pattern = zig-zag
; internal_solid_infill_speed = 250
; ironing_direction = 45
; ironing_flow = 10%
; ironing_inset = 0
; ironing_pattern = zig-zag
; ironing_spacing = 0.15
; ironing_speed = 30
; ironing_type = no ironing
; is_infill_first = 0
; layer_change_gcode = 
; layer_height = 0.2
; line_width = 0.4
; long_retractions_when_cut = 0
; machine_end_gcode = END_PRINT
; machine_load_filament_time = 0
; machine_max_acceleration_e = 5000,5000
; machine_max_acceleration_extruding = 20000,20000
; machine_max_acceleration_retracting = 6000,6000
; machine_max_acceleration_travel = 20000,20000
; machine_max_acceleration_x = 20000,20000
; machine_max_acceleration_y = 5000,5000
; machine_max_acceleration_z = 20000,20000
; machine_max_jerk_e = 10,10
; machine_max_jerk_x = 20,20
; machine_max_jerk_y = 10,10
; machine_max_jerk_z = 20,20
; machine_max_speed_e = 100,100
; machine_max_speed_x = 600,600
; machine_max_speed_y = 600,600
; machine_max_speed_z = 500,500
; machine_min_extruding_rate = 0,0
; machine_min_travel_rate = 0,0
; machine_pause_gcode = PAUSE
; machine_start_gcode = M140 S0\nM104 S0\nSTART_PRINT EXTRUDER_TEMP=[nozzle_temperature_initial_layer] BED_TEMP=[bed_temperature_initial_layer_single]
; machine_unload_filament_time = 0
; max_bridge_length = 10
; max_layer_height = 0.35
; max_travel_detour_distance = 0
; min_bead_width = 85%
; min_feature_size = 25%
; min_layer_height = 0.1
; minimum_sparse_infill_area = 15
; mmu_segmented_region_interlocking_depth = 0
; mmu_segmented_region_max_width = 0
; nozzle_diameter = 0.4
; nozzle_height = 4
; nozzle_temperature = 220
; nozzle_temperature_initial_layer = 220
; nozzle_temperature_range_high = 240
; nozzle_temperature_range_low = 190
; nozzle_type = hardened_steel
; nozzle_volume = 0
; only_one_wall_first_layer = 0
; ooze_prevention = 0
; other_layers_print_sequence = 0
; other_layers_print_sequence_nums = 0
; outer_wall_acceleration = 5000
; outer_wall_jerk = 9
; outer_wall_line_width = 0.4
; outer_wall_speed = 200
; overhang_1_4_speed = 0
; overhang_2_4_speed = 50
; overhang_3_4_speed = 30
; overhang_4_4_speed = 10
; overhang_fan_speed = 100
; overhang_fan_threshold = 50%
; overhang_threshold_participating_cooling = 95%
; overhang_totally_speed = 24
; post_process = 
; precise_z_height = 0
; pressure_advance = 0.02
; prime_tower_brim_width = 3
; prime_tower_width = 35
; prime_volume = 45
; print_compatible_printers = "Creality ENDER Ender-3 0.4 nozzle"
; print_flow_ratio = 1
; print_sequence = by layer
; print_settings_id = process template @Creality ENDER Ender-3 0.4 nozzle
; printable_area = 0x0,200x0,200x200,0x200
; printable_height = 200
; printer_model = Creality ENDER Ender-3
; printer_notes = 
; printer_settings_id = Creality ENDER Ender-3 0.4 nozzle
; printer_structure = i3
; printer_technology = FFF
; printer_variant = 0.4
; printhost_authorization_type = key
; printhost_ssl_ignore_revoke = 0
; printing_by_object_gcode = 
; process_notes = 
; raft_contact_distance = 0.1
; raft_expansion = 1.5
; raft_first_layer_density = 90%
; raft_first_layer_expansion = 2
; raft_layers = 0
; reduce_crossing_wall = 0
; reduce_fan_stop_start_freq = 1
; reduce_infill_retraction = 1
; required_nozzle_HRC = 3
; resolution = 0.012
; retract_before_wipe = 70%
; retract_length_toolchange = 1
; retract_lift_above = 0
; retract_lift_below = 0
; retract_restart_extra = 0
; retract_restart_extra_toolchange = 0
; retract_when_changing_layer = 1
; retraction_distances_when_cut = 18
; retraction_length = 0.6
; retraction_minimum_travel = 1
; retraction_speed = 40
; role_base_wipe_speed = 1
; scan_first_layer = 0
; scarf_angle_threshold = 155
; seam_gap = 15%
; seam_position = aligned
; seam_slope_conditional = 1
; seam_slope_entire_loop = 0
; seam_slope_inner_walls = 1
; seam_slope_steps = 10
; silent_mode = 0
; single_extruder_multi_material = 1
; skirt_distance = 2
; skirt_height = 1
; skirt_loops = 0
; slice_closing_radius = 0.049
; slicing_mode = regular
; slow_down_for_layer_cooling = 1
; slow_down_layer_time = 4
; slow_down_min_speed = 20
; small_perimeter_speed = 50%
; small_perimeter_threshold = 0
; smooth_coefficient = 80
; smooth_speed_discontinuity_area = 1
; solid_infill_filament = 1
; sparse_infill_acceleration = 100%
; sparse_infill_anchor = 400%
; sparse_infill_anchor_max = 20
; sparse_infill_density = 15%
; sparse_infill_filament = 1
; sparse_infill_line_width = 0.4
; sparse_infill_pattern = grid
; sparse_infill_speed = 270
; spiral_mode = 0
; spiral_mode_max_xy_smoothing = 200%
; spiral_mode_smooth = 0
; standby_temperature_delta = -5
; start_end_points = 30x-3,54x245
; supertack_plate_temp = 35
; supertack_plate_temp_initial_layer = 35
; support_air_filtration = 0
; support_angle = 0
; support_base_pattern = default
; support_base_pattern_spacing = 2.5
; support_bottom_interface_spacing = 0.5
; support_bottom_z_distance = 0.2
; support_chamber_temp_control = 0
; support_critical_regions_only = 0
; support_expansion = 0
; support_filament = 0
; support_interface_bottom_layers = 2
; support_interface_filament = 0
; support_interface_loop_pattern = 0
; support_interface_not_for_body = 1
; support_interface_pattern = auto
; support_interface_spacing = 0.5
; support_interface_speed = 80
; support_interface_top_layers = 2
; support_line_width = 0.4
; support_object_first_layer_gap = 0.2
; support_object_xy_distance = 0.35
; support_on_build_plate_only = 0
; support_remove_small_overhang = 1
; support_speed = 150
; support_style = default
; support_threshold_angle = 30
; support_top_z_distance = 0.2
; support_type = normal(auto)
; temperature_vitrification = 55
; template_custom_gcode = 
; textured_plate_temp = 55
; textured_plate_temp_initial_layer = 55
; thick_bridges = 0
; thumbnail_size = 50x50
; time_lapse_gcode = 
; timelapse_type = 0
; top_area_threshold = 100%
; top_one_wall_type = all top
; top_shell_layers = 5
; top_shell_thickness = 0.6
; top_solid_infill_flow_ratio = 1
; top_surface_acceleration = 2000
; top_surface_jerk = 9
; top_surface_line_width = 0.4
; top_surface_pattern = monotonicline
; top_surface_speed = 200
; travel_jerk = 9
; travel_speed = 500
; travel_speed_z = 0
; tree_support_branch_angle = 45
; tree_support_branch_diameter = 2
; tree_support_branch_diameter_angle = 5
; tree_support_branch_distance = 5
; tree_support_wall_count = 0
; upward_compatible_machine = 
; use_firmware_retraction = 0
; use_relative_e_distances = 1
; wall_distribution_count = 1
; wall_filament = 1
; wall_generator = classic
; wall_loops = 2
; wall_sequence = inner wall/outer wall
; wall_transition_angle = 10
; wall_transition_filter_deviation = 25%
; wall_transition_length = 100%
; wipe = 1
; wipe_distance = 2
; wipe_speed = 80%
; wipe_tower_no_sparse_layers = 0
; wipe_tower_rotation_angle = 0
; wipe_tower_x = 0,0
; wipe_tower_y = 250,250
; xy_contour_compensation = 0
; xy_hole_compensation = 0
; z_hop = 0.2
; z_hop_types = Auto Lift
; CONFIG_BLOCK_END

; THUMBNAIL_BLOCK_START
; THUMBNAIL_BLOCK_END

; EXECUTABLE_BLOCK_START
EXCLUDE_OBJECT_DEFINE NAME=Arduino_Uno_Case_Bottom.stl_id_0_copy_0 CENTER=128,157.5 POLYGON=[[91.5,131.635],[91.5108,131.361],[91.5505,131.089],[91.6186,130.823],[91.7143,130.566],[91.8366,130.32],[91.9841,130.089],[92.1553,129.874],[92.3481,129.679],[92.5604,129.505],[92.7898,129.354],[93.0339,129.229],[93.2899,129.129],[93.5548,129.058],[93.8259,129.014],[94.1,129],[158.5,129],[158.814,129.016],[159.124,129.066],[159.427,129.147],[159.72,129.259],[160,129.402],[160.263,129.573],[160.507,129.771],[160.729,129.993],[160.927,130.237],[161.098,130.5],[164.062,135.304],[164.193,135.523],[164.302,135.754],[164.388,135.994],[164.45,136.241],[164.487,136.494],[164.5,136.749],[164.5,170.251],[164.487,170.506],[164.45,170.759],[161.434,183.624],[161.353,183.927],[161.241,184.22],[161.098,184.5],[160.927,184.763],[160.729,185.007],[160.507,185.229],[160.263,185.427],[160,185.598],[159.72,185.741],[159.427,185.853],[159.124,185.934],[158.814,185.984],[158.5,186],[94.1,186],[93.8282,185.986],[93.5594,185.943],[93.2966,185.873],[93.0425,185.775],[92.8,185.652],[92.5718,185.503],[92.3603,185.332],[92.1678,185.14],[91.9966,184.928],[91.8483,184.7],[91.7248,184.458],[91.6273,184.203],[91.5568,183.941],[91.5142,183.672],[91.5,183.4],[91.5,131.635]]
EXCLUDE_OBJECT_DEFINE NAME=Arduino_Uno_Case_Top.stl_id_1_copy_0 CENTER=128,98.5 POLYGON=[[91.5,72.6],[91.5142,72.3282],[91.5568,72.0594],[91.6273,71.7966],[91.7248,71.5425],[91.8483,71.3],[91.9966,71.0718],[92.1678,70.8603],[92.3603,70.6678],[92.5718,70.4966],[92.8,70.3483],[93.0425,70.2248],[93.2966,70.1273],[93.5594,70.0568],[93.8282,70.0142],[94.1,70],[158.5,70],[158.814,70.0164],[159.124,70.0656],[159.427,70.1468],[159.72,70.2594],[160,70.4019],[160.263,70.573],[160.507,70.7706],[160.729,70.9926],[160.927,71.2366],[161.098,71.5],[161.241,71.7798],[161.353,72.0729],[161.434,72.3763],[164.451,85.2372],[164.488,85.4917],[164.5,85.7485],[164.5,119.251],[164.487,119.508],[164.449,119.762],[164.385,120.011],[164.297,120.252],[164.185,120.483],[164.05,120.702],[161.098,125.5],[160.927,125.763],[160.729,126.007],[160.507,126.229],[160.263,126.427],[160,126.598],[159.72,126.741],[159.427,126.853],[159.124,126.934],[158.814,126.984],[158.5,127],[94.1,127],[93.8271,126.986],[93.5572,126.943],[93.2933,126.872],[93.0383,126.773],[92.7951,126.649],[92.5663,126.499],[92.3544,126.327],[92.1618,126.133],[91.9906,125.92],[91.8427,125.69],[91.7197,125.446],[91.6231,125.191],[91.5538,124.926],[91.5126,124.656],[91.5,124.383],[91.5,72.6]]
M73 P0 R42
M106 S0
M106 P2 S0
; FEATURE: Custom
M140 S0
M104 S0
START_PRINT EXTRUDER_TEMP=220 BED_TEMP=55
G90
G21
M83 ; use relative distances for extrusion
; filament start gcode
M106 P3 S255


; CHANGE_LAYER
; Z_HEIGHT: 0.2
; LAYER_HEIGHT: 0.2
G1 E-.6 F2400
M106 S0
M106 P2 S0
M204 S500
EXCLUDE_OBJECT_START NAME=Arduino_Uno_Case_Bottom.stl_id_0_copy_0
; start printing object, unique label id: 113
; printing object Arduino_Uno_Case_Bottom.stl_id_0_copy_0
G1 X160.793 Y132.919 F30000
G1 Z.2
G1 E.6 F2400
; FEATURE: Inner wall
; LINE_WIDTH: 0.4
G1 F3000
G1 X160.793 Y132.964 E.00135
G1 X163.226 Y135.398 E.10217
G3 X163.793 Y136.766 I-1.451 J1.402 E.04502
G1 X163.793 Y170.234 E.99372
G3 X163.226 Y171.602 I-2.017 J-.034 E.04502
G1 X160.793 Y174.036 E.10217
G1 X160.793 Y182.981 E.26562
G3 X158.481 Y185.293 I-2.303 J.009 E.10791
G1 X94.119 Y185.293 E1.91102
G3 X92.207 Y183.381 I-.01 J-1.902 E.08927
G1 X92.207 Y131.649 E1.536
G3 X94.119 Y129.707 I1.902 J-.04 E.09019
G1 X158.481 Y129.707 E1.91102
G1 X158.738 Y129.721 E.00763
G3 X160.793 Y132.019 I-.243 J2.285 E.10033
G1 X160.793 Y132.859 E.02496
G1 X161.15 Y132.775 F30000
; FEATURE: Outer wall
G1 F3000
G1 X161.15 Y132.817 E.00124
G1 X163.485 Y135.151 E.09804
G3 X164.15 Y136.757 I-1.728 J1.656 E.05281
G1 X164.15 Y170.243 E.99424
G3 X163.485 Y171.849 I-2.393 J-.051 E.05281
G1 X161.15 Y174.183 E.09804
G1 X161.15 Y182.991 E.2615
G3 X158.491 Y185.65 I-2.66 J-.001 E.12401
G1 X94.109 Y185.65 E1.91158
