;FLAVOR:Marlin
;TIME:5476
;Filament used: 3.71127m
;Layer height: 0.2
;MINX:94.699
;MINY:84.75
;MINZ:0.2
;MAXX:140.301
;MAXY:150.25
;MAXZ:28.8
;POSTPROCESSED
;Generated with Cura_SteamEngine 5.3.1
M82 ;absolute extrusion mode
;*** Start Dual Nozzle/Bed Preheating ***
M140 S60 ; start preheating the bed
M104 S210.0 ﻿T0 ; start preheating hotend
G28 ; home
M190 S60 ; heat to Cura Bed setting
M109 S210.0 ﻿T0 ; heat to Cura Hotend

;*** End Preheating ***

M300 S440 P200
M300 S660 P250
M300 S880 P300

; Ender 3 Custom Start G-code
G92 E0 ; Reset Extruder
G28 ; Home all axes
G1 Z2.0 F3000 ; Move Z Axis up little to prevent scratching of Heat Bed
G1 X0.1 Y20 Z0.3 F5000.0 ; Move to start position
G1 X0.1 Y200.0 Z0.3 F1500.0 E15 ; Draw the first line
G1 X0.4 Y200.0 Z0.3 F5000.0 ; Move to side a little
G1 X0.4 Y20 Z0.3 F1500.0 E30 ; Draw the second line
G92 E0 ; Reset Extruder
G1 Z2.0 F3000 ; Move Z Axis up little to prevent scratching of Heat Bed
G1 X5 Y20 Z0.3 F5000.0 ; Move over to prevent blob squish
G92 E0
G92 E0
G1 F2700 E-10
;LAYER_COUNT:144
;LAYER:0
M107
G1 F300 Z0.4
G0 F6000 X95.852 Y87.125 Z0.4
;TYPE:SKIRT
G1 F300 Z0.2
G1 F2700 E0
G1 F1200 X96.95 Y86.034 E0.05148
G1 X97.985 Y85.34 E0.09293
G1 X99.786 Y84.75 E0.15596
G1 X135.248 Y84.75 E1.33543
G1 X136.836 Y85.277 E1.39108
G1 X137.927 Y85.905 E1.43295
G1 X139.162 Y87.141 E1.49107
G1 X139.786 Y88.25 E1.53339
G1 X140.301 Y89.847 E1.5892
G1 X140.301 Y145.173 E3.42935
G1 X139.753 Y146.817 E3.48699
G1 X139.163 Y147.855 E3.5267
G1 X138.042 Y148.973 E3.57936
G1 X137.02 Y149.659 E3.6203
G1 X135.216 Y150.25 E3.68344
G1 X99.77 Y150.25 E4.86237
G1 X98.156 Y149.712 E4.91896
G1 X97.074 Y149.097 E4.96035
G1 X95.983 Y147.999 E5.01184
G1 X95.289 Y146.964 E5.05328
G1 X94.699 Y145.163 E5.11632
G1 X94.699 Y89.821 E6.957
G1 X95.237 Y88.207 E7.01359
G1 X95.852 Y87.125 E7.05498
G0 F6000 X96.173 Y87.37
G1 F1200 X97.206 Y86.344 E7.1034
G1 X98.162 Y85.703 E7.14169
G1 X99.85 Y85.15 E7.20077
G1 X135.182 Y85.15 E8.37591
G1 X136.673 Y85.645 E8.42817
G1 X137.681 Y86.225 E8.46685
G1 X138.84 Y87.385 E8.52139
G1 X139.417 Y88.411 E8.56054
G1 X139.901 Y89.911 E8.61296
G1 X139.901 Y145.11 E10.44889
G1 X139.388 Y146.649 E10.50284
G1 X138.84 Y147.613 E10.53972
G1 X137.789 Y148.661 E10.58909
G1 X136.843 Y149.296 E10.62698
G1 X135.152 Y149.85 E10.68617
G1 X99.833 Y149.85 E11.86088
G1 X98.324 Y149.347 E11.91379
G1 X97.319 Y148.776 E11.95223
G1 X96.293 Y147.743 E12.00066
G1 X95.652 Y146.787 E12.03894
G1 X95.099 Y145.099 E12.09802
G1 X95.099 Y89.884 E13.93448
G1 X95.602 Y88.375 E13.98738
G1 X96.173 Y87.37 E14.02583
G0 F6000 X96.494 Y87.615
G1 F1200 X97.462 Y86.654 E14.07119
G1 X98.339 Y86.066 E14.10631
G1 X99.914 Y85.55 E14.16144
G1 X135.116 Y85.55 E15.33226
G1 X136.508 Y86.012 E15.38104
G1 X137.436 Y86.546 E15.41665
G1 X138.518 Y87.629 E15.46757
G1 X139.048 Y88.572 E15.50355
G1 X139.501 Y89.975 E15.55258
G1 X139.501 Y145.047 E17.38429
G1 X139.023 Y146.481 E17.43456
G1 X138.517 Y147.371 E17.46861
G1 X137.536 Y148.349 E17.51469
G1 X136.666 Y148.933 E17.54954
G1 X135.088 Y149.45 E17.60477
G1 X99.896 Y149.45 E18.77526
G1 X98.492 Y148.982 E18.82448
G1 X97.564 Y148.455 E18.85997
G1 X96.603 Y147.487 E18.90534
G1 X96.015 Y146.61 E18.94046
G1 X95.499 Y145.035 E18.99559
G1 X95.499 Y89.947 E20.82782
G1 X95.967 Y88.543 E20.87704
G1 X96.494 Y87.615 E20.91254
G0 F6000 X96.815 Y87.86
G1 F1200 X97.718 Y86.964 E20.95485
G1 X98.516 Y86.429 E20.9868
G1 X99.978 Y85.95 E21.03797
G1 X135.05 Y85.95 E22.20447
G1 X136.343 Y86.379 E22.24978
G1 X137.191 Y86.867 E22.28232
G1 X138.196 Y87.873 E22.32962
G1 X138.679 Y88.733 E22.36243
G1 X139.101 Y90.039 E22.40807
G1 X139.101 Y144.984 E24.23555
G1 X138.658 Y146.313 E24.28215
G1 X138.194 Y147.129 E24.31337
G1 X137.283 Y148.037 E24.35615
G1 X136.489 Y148.57 E24.38795
G1 X135.024 Y149.05 E24.43923
G1 X99.962 Y149.05 E25.6054
G1 X98.656 Y148.615 E25.65118
G1 X97.809 Y148.134 E25.68358
G1 X96.913 Y147.231 E25.72589
G1 X96.378 Y146.433 E25.75784
G1 X95.899 Y144.971 E25.80901
G1 X95.899 Y90.013 E27.63692
G1 X96.334 Y88.707 E27.68271
G1 X96.815 Y87.86 E27.7151
G0 F6000 X97.135 Y88.106
G1 F1200 X97.974 Y87.274 E27.7544
G1 X98.693 Y86.792 E27.78319
G1 X100.042 Y86.35 E27.83041
G1 X134.984 Y86.35 E28.99258
G1 X136.178 Y86.746 E29.03442
G1 X136.946 Y87.188 E29.0639
G1 X137.874 Y88.117 E29.10757
G1 X138.31 Y88.894 E29.1372
G1 X138.701 Y90.103 E29.17946
G1 X138.701 Y144.921 E31.00272
G1 X138.293 Y146.145 E31.04563
G1 X137.871 Y146.887 E31.07402
G1 X137.03 Y147.725 E31.11351
G1 X136.312 Y148.207 E31.14227
G1 X134.96 Y148.65 E31.18959
G1 X100.025 Y148.65 E32.35154
G1 X98.822 Y148.249 E32.39371
G1 X98.055 Y147.814 E32.42304
G1 X97.223 Y146.975 E32.46234
G1 X96.741 Y146.256 E32.49113
G1 X96.299 Y144.907 E32.53834
G1 X96.299 Y90.076 E34.36203
G1 X96.7 Y88.873 E34.40421
G1 X97.135 Y88.106 E34.43354
G0 F6000 X97.455 Y88.352
G1 F1200 X98.23 Y87.584 E34.46982
G1 X98.87 Y87.155 E34.49545
G1 X100.106 Y86.75 E34.53871
G1 X134.918 Y86.75 E35.69656
G1 X136.013 Y87.113 E35.73493
G1 X136.701 Y87.509 E35.76133
G1 X137.552 Y88.361 E35.80139
G1 X137.941 Y89.055 E35.82785
G1 X138.301 Y90.167 E35.86672
G1 X138.301 Y144.858 E37.68575
G1 X137.928 Y145.977 E37.72498
G1 X137.548 Y146.645 E37.75055
G1 X136.777 Y147.413 E37.78674
G1 X136.135 Y147.844 E37.81246
G1 X134.896 Y148.25 E37.85582
G1 X100.091 Y148.25 E39.01344
G1 X98.983 Y147.881 E39.05229
G1 X98.301 Y147.494 E39.07837
G1 X97.533 Y146.719 E39.11466
G1 X97.104 Y146.079 E39.14028
G1 X96.699 Y144.843 E39.18354
G1 X96.699 Y90.142 E41.00291
G1 X97.068 Y89.034 E41.04175
G1 X97.455 Y88.352 E41.06783
G0 F6000 X97.776 Y88.596
G1 F1200 X98.483 Y87.896 E41.10092
G1 X99.048 Y87.517 E41.12355
G1 X100.169 Y87.15 E41.16278
G1 X134.852 Y87.15 E42.31634
G1 X135.848 Y87.48 E42.35124
G1 X136.456 Y87.83 E42.37457
G1 X137.231 Y88.606 E42.41105
G1 X137.571 Y89.213 E42.43419
G1 X137.901 Y90.231 E42.46978
G1 X137.901 Y144.795 E44.28459
G1 X137.563 Y145.809 E44.32014
G1 X137.225 Y146.403 E44.34287
G1 X136.524 Y147.101 E44.37577
G1 X135.958 Y147.481 E44.39845
G1 X134.832 Y147.85 E44.43786
G1 X100.154 Y147.85 E45.59125
G1 X99.149 Y147.515 E45.62649
G1 X98.545 Y147.173 E45.64957
G1 X97.845 Y146.466 E45.68266
G1 X97.466 Y145.901 E45.70529
G1 X97.099 Y144.78 E45.74452
G1 X97.099 Y90.205 E47.5597
G1 X97.434 Y89.2 E47.59493
G1 X97.776 Y88.596 E47.61802
G0 F6000 X98.096 Y88.842
G1 F1200 X98.737 Y88.207 E47.64803
G1 X99.226 Y87.88 E47.66759
G1 X100.233 Y87.55 E47.70284
G1 X134.786 Y87.55 E48.85208
G1 X135.685 Y87.848 E48.88358
G1 X136.21 Y88.15 E48.90372
G1 X136.91 Y88.851 E48.93667
G1 X137.204 Y89.376 E48.95668
G1 X137.501 Y90.292 E48.98871
G1 X137.501 Y144.732 E50.79939
G1 X137.198 Y145.641 E50.83126
G1 X136.904 Y146.158 E50.85104
G1 X136.268 Y146.791 E50.88089
G1 X135.781 Y147.118 E50.9004
G1 X134.768 Y147.45 E50.93585
G1 X100.217 Y147.45 E52.08502
G1 X99.314 Y147.149 E52.11668
G1 X98.791 Y146.853 E52.13667
G1 X98.156 Y146.212 E52.16668
G1 X97.829 Y145.723 E52.18625
G1 X97.499 Y144.716 E52.22149
G1 X97.499 Y90.268 E54.03244
G1 X97.8 Y89.365 E54.0641
G1 X98.096 Y88.842 E54.08409
G0 F6000 X98.416 Y89.088
G1 F1200 X98.991 Y88.518 E54.11102
G1 X99.403 Y88.243 E54.12749
G1 X100.297 Y87.95 E54.15878
G1 X134.72 Y87.95 E55.30369
G1 X135.522 Y88.216 E55.3318
G1 X135.964 Y88.47 E55.34875
G1 X136.589 Y89.096 E55.37818
G1 X136.837 Y89.539 E55.39506
G1 X137.101 Y90.353 E55.42352
G1 X137.101 Y144.669 E57.23008
G1 X136.833 Y145.473 E57.25827
G1 X136.583 Y145.913 E57.2751
G1 X136.012 Y146.481 E57.30189
G1 X135.604 Y146.755 E57.31823
G1 X134.704 Y147.05 E57.34974
G1 X100.28 Y147.05 E58.49468
G1 X99.479 Y146.783 E58.52276
G1 X99.037 Y146.533 E58.53965
G1 X98.467 Y145.958 E58.56658
G1 X98.192 Y145.546 E58.58306
G1 X97.899 Y144.652 E58.61435
G1 X97.899 Y90.331 E60.42107
G1 X98.166 Y89.53 E60.44916
G1 X98.416 Y89.088 E60.46605
G0 F6000 X98.736 Y89.334
G1 F1200 X99.245 Y88.829 E60.48989
G1 X99.581 Y88.605 E60.50332
G1 X100.36 Y88.35 E60.53059
G1 X134.654 Y88.35 E61.67121
G1 X135.359 Y88.584 E61.69592
G1 X135.718 Y88.79 E61.70968
G1 X136.268 Y89.341 E61.73558
G1 X136.47 Y89.702 E61.74934
G1 X136.701 Y90.414 E61.77423
G1 X136.701 Y144.603 E63.57657
G1 X136.466 Y145.309 E63.60131
G1 X136.262 Y145.668 E63.61505
G1 X135.756 Y146.171 E63.63878
G1 X135.427 Y146.392 E63.65196
G1 X134.64 Y146.65 E63.67951
G1 X100.346 Y146.65 E64.82013
G1 X99.64 Y146.415 E64.84488
G1 X99.283 Y146.213 E64.85852
G1 X98.778 Y145.704 E64.88237
G1 X98.554 Y145.368 E64.8958
G1 X98.299 Y144.589 E64.92306
G1 X98.299 Y90.397 E66.72549
G1 X98.534 Y89.691 E66.75024
G1 X98.736 Y89.334 E66.76389
G0 F6000 X99.059 Y89.577
G1 F1200 X98.901 Y89.855 E66.77452
G1 X98.699 Y90.463 E66.79583
G1 X98.699 Y144.526 E68.59397
G1 X98.916 Y145.19 E68.61721
G1 X99.091 Y145.453 E68.62771
G1 X99.526 Y145.89 E68.64822
G1 X99.804 Y146.048 E68.65886
G1 X100.412 Y146.25 E68.68017
G1 X134.577 Y146.25 E69.8165
G1 X135.249 Y146.03 E69.84002
G1 X135.5 Y145.861 E69.85008
G1 X135.941 Y145.423 E69.87075
G1 X136.099 Y145.145 E69.88139
G1 X136.301 Y144.537 E69.9027
G1 X136.301 Y90.476 E71.70078
G1 X136.102 Y89.863 E71.72221
G1 X135.947 Y89.586 E71.73277
G1 X135.472 Y89.11 E71.75513
G1 X135.196 Y88.952 E71.76571
G1 X134.588 Y88.75 E71.78702
G1 X100.423 Y88.75 E72.92335
G1 X99.759 Y88.967 E72.94659
G1 X99.496 Y89.142 E72.95709
G1 X99.059 Y89.577 E72.9776
G0 F6000 X99.379 Y89.823
G1 F1200 X99.281 Y89.981 E72.98379
G1 X99.099 Y90.529 E73.00299
G1 X99.099 Y144.463 E74.79684
G1 X99.279 Y145.013 E74.81609
G1 X99.375 Y145.171 E74.82224
G1 X99.772 Y145.57 E74.84096
G1 X99.93 Y145.668 E74.84715
G1 X100.478 Y145.85 E74.86635
G1 X134.514 Y145.85 E75.99839
G1 X135.071 Y145.668 E76.01788
G1 X135.218 Y145.577 E76.02363
G1 X135.621 Y145.177 E76.04252
G1 X135.719 Y145.019 E76.0487
G1 X135.901 Y144.471 E76.06791
G1 X135.901 Y90.538 E77.86173
G1 X135.722 Y89.987 E77.881
G1 X135.625 Y89.829 E77.88716
G1 X135.227 Y89.43 E77.90591
G1 X135.07 Y89.332 E77.91206
G1 X134.522 Y89.15 E77.93127
G1 X100.486 Y89.15 E79.06331
G1 X99.936 Y89.33 E79.08256
G1 X99.778 Y89.426 E79.08871
G1 X99.379 Y89.823 E79.10743
G0 F6000 X99.661 Y90.107
G1 F1200 X100.06 Y89.71 E79.12615
G1 X100.549 Y89.55 E79.14326
G1 X134.456 Y89.55 E80.27101
G1 X134.944 Y89.712 E80.28811
G1 X135.342 Y90.111 E80.30686
G1 X135.501 Y90.6 E80.32396
G1 X135.501 Y144.405 E82.11352
G1 X135.339 Y144.893 E82.13062
G1 X134.94 Y145.29 E82.14935
G1 X134.451 Y145.45 E82.16646
G1 X100.544 Y145.45 E83.29421
G1 X100.056 Y145.288 E83.31131
G1 X99.659 Y144.889 E83.33003
G1 X99.499 Y144.4 E83.34714
G1 X99.499 Y90.595 E85.13671
G1 X99.661 Y90.107 E85.15381
G1 F2700 E75.15381
G1 F300 Z0.4
;MESH:main.stl
G0 F6000 X104.221 Y106.222 Z0.4
;TYPE:WALL-INNER
G1 F300 Z0.2
G1 F2700 E85.15381
G1 F1200 X103.646 Y106.202 E85.17294
G1 X103.162 Y106.113 E85.18931
G1 X102.666 Y105.88 E85.20754
G1 X102.447 Y105.74 E85.21618
G1 X102.124 Y105.47 E85.23019
G1 X101.945 Y105.274 E85.23901
G1 X101.704 Y104.927 E85.25307
G1 X101.581 Y104.687 E85.26204
G1 F1108.5 X101.405 Y104.282 E85.27793
G1 F944.9 X101.321 Y104.127 E85.28538
G1 F890.5 X101.289 Y103.519 E85.31267
G1 F893.9 X101.317 Y103.162 E85.32866
G1 F961.9 X101.408 Y102.982 E85.33703
G1 F1093.4 X101.624 Y102.454 E85.35785
G1 F1145.6 X101.82 Y102.121 E85.37131
G1 F1182.3 X102.178 Y101.73 E85.38921
G1 F1200 X102.553 Y101.419 E85.40541
G1 X103.056 Y101.189 E85.42381
G1 X103.514 Y101.053 E85.4397
G1 X104.212 Y101.028 E85.46293
G1 X104.888 Y101.191 E85.48606
G1 X105.474 Y101.512 E85.50828
G1 X105.997 Y102.012 E85.53235
G1 X106.345 Y102.591 E85.55482
G1 X106.534 Y103.264 E85.57807
G1 X106.534 Y103.954 E85.60102
G1 X106.445 Y104.364 E85.61497
G1 X106.212 Y104.913 E85.63481
G1 X105.978 Y105.262 E85.64878
G1 X105.506 Y105.717 E85.67059
G1 X104.899 Y106.05 E85.69361
G1 X104.221 Y106.222 E85.71688
G0 F6000 X104.161 Y105.819
G1 F1200 X103.66 Y105.802 E85.73355
G1 X103.286 Y105.729 E85.74623
G1 X102.765 Y105.485 E85.76536
G1 X102.317 Y105.109 E85.78481
G1 X101.985 Y104.63 E85.8042
G1 X101.791 Y104.073 E85.82382
G1 X101.752 Y103.519 E85.84229
G1 X101.792 Y103.177 E85.85374
G1 X101.971 Y102.647 E85.87235
G1 X102.181 Y102.32 E85.88527
G1 X102.474 Y101.999 E85.89973
G1 X102.767 Y101.761 E85.91228
G1 X103.222 Y101.553 E85.92892
G1 X103.579 Y101.452 E85.94126
G1 X104.153 Y101.431 E85.96037
G1 X104.722 Y101.562 E85.97979
G1 X105.247 Y101.843 E85.99959
G1 X105.678 Y102.253 E86.01938
G1 X105.981 Y102.771 E86.03934
G1 X106.134 Y103.336 E86.0588
G1 X106.135 Y103.874 E86.0767
G1 X106.07 Y104.209 E86.08805
G1 X105.87 Y104.696 E86.10556
G1 X105.672 Y105.001 E86.11765
G1 X105.266 Y105.394 E86.13645
G1 X104.754 Y105.677 E86.1559
G1 X104.161 Y105.819 E86.17619
G1 F2700 E76.17619
G1 F300 Z0.4
G0 F6000 X116.831 Y96.536 Z0.4
G1 F300 Z0.2
G1 F2700 E86.17619
G1 F1200 X116.18 Y96.275 E86.19951
G1 X115.641 Y95.883 E86.22168
G1 X115.238 Y95.374 E86.24327
G1 X115.032 Y94.968 E86.25842
G1 X114.896 Y94.465 E86.27575
G1 X114.841 Y93.991 E86.29162
G1 X114.916 Y93.444 E86.30998
G1 X115.055 Y92.97 E86.32641
G1 X115.391 Y92.398 E86.34847
G1 X115.742 Y92.045 E86.36503
G1 X116.089 Y91.789 E86.37937
G1 X116.459 Y91.595 E86.39327
G1 X116.654 Y91.528 E86.40013
G1 F1025.6 X117.059 Y91.356 E86.41725
G1 F885.6 X117.579 Y91.336 E86.4407
G1 F858.7 X118.102 Y91.401 E86.4652
G1 F941.2 X118.289 Y91.514 E86.47446
G1 F1129.4 X118.658 Y91.703 E86.48911
G1 F1200 X119.125 Y91.999 E86.5075
G1 X119.46 Y92.357 E86.52381
G1 X119.702 Y92.709 E86.53802
G1 X119.923 Y93.164 E86.55484
G1 X120.03 Y93.708 E86.57328
G1 X120.046 Y93.975 E86.58218
G1 X120.006 Y94.522 E86.60042
G1 X119.776 Y95.181 E86.62364
G1 X119.394 Y95.741 E86.64618
G1 X118.892 Y96.167 E86.66808
G1 X118.525 Y96.373 E86.68208
G1 X117.892 Y96.568 E86.70411
G1 X117.501 Y96.605 E86.71717
G1 X116.831 Y96.536 E86.73957
G0 F6000 X116.924 Y96.142
G1 F1200 X116.388 Y95.933 E86.75871
G1 X115.908 Y95.577 E86.77859
G1 X115.569 Y95.141 E86.79695
G1 X115.409 Y94.828 E86.80865
G1 X115.282 Y94.36 E86.82478
G1 X115.245 Y93.989 E86.83718
G1 X115.322 Y93.428 E86.85601
G1 X115.461 Y93.067 E86.86888
G1 X115.707 Y92.65 E86.88498
G1 X115.979 Y92.367 E86.89803
G1 X116.326 Y92.111 E86.91238
G1 X116.676 Y91.934 E86.92542
G1 X117.181 Y91.817 E86.94266
G1 X117.545 Y91.8 E86.95478
G1 X118.022 Y91.879 E86.97086
G1 X118.385 Y92.003 E86.98362
G1 X118.867 Y92.309 E87.00261
G1 X119.13 Y92.584 E87.01527
G1 X119.372 Y92.936 E87.02948
G1 X119.54 Y93.293 E87.0426
G1 X119.654 Y93.869 E87.06213
G1 X119.605 Y94.445 E87.08135
G1 X119.414 Y94.993 E87.10066
G1 X119.087 Y95.479 E87.12014
G1 X118.642 Y95.85 E87.13941
G1 X118.34 Y96.013 E87.15082
G1 X117.817 Y96.175 E87.16903
G1 X117.47 Y96.201 E87.18061
G1 X116.924 Y96.142 E87.19887
G1 F2700 E77.19887
G1 F300 Z0.4
G0 F6000 X130.645 Y106.198 Z0.4
G1 F300 Z0.2
G1 F2700 E87.19887
G1 F1200 X130.242 Y106.097 E87.21269
G1 X129.638 Y105.817 E87.23483
G1 X129.119 Y105.376 E87.25749
G1 X128.727 Y104.811 E87.28036
G1 X128.494 Y104.129 E87.30433
G1 X128.45 Y103.501 E87.32527
G1 X128.505 Y103.077 E87.33949
G1 X128.709 Y102.481 E87.36044
G1 X128.931 Y102.112 E87.37476
G1 X129.328 Y101.68 E87.39428
G1 X129.642 Y101.432 E87.40759
G1 X130.158 Y101.189 E87.42656
G1 X130.616 Y101.053 E87.44245
G1 X131.175 Y101.033 E87.46105
G1 X131.447 Y101.06 E87.47014
G1 X131.861 Y101.16 E87.48431
G1 X132.107 Y101.255 E87.49308
G1 X132.475 Y101.458 E87.50706
G1 X132.686 Y101.612 E87.51574
G1 X132.996 Y101.907 E87.52998
G1 X133.165 Y102.119 E87.539
G1 X133.381 Y102.482 E87.55304
G1 X133.485 Y102.724 E87.56181
G1 F1004.2 X133.676 Y103.116 E87.57914
G1 F880.7 X133.702 Y103.403 E87.5922
G1 F895.5 X133.703 Y104.027 E87.62001
