;FLAVOR:Marlin
;TIME:4565
;Filament used: 2.80226m
;Layer height: 0.2
;MINX:62.465
;MINY:101.105
;MINZ:0.2
;MAXX:126.012
;MAXY:140.812
;MAXZ:48
;POSTPROCESSED
;Generated with Cura_SteamEngine 5.3.1
M82 ;absolute extrusion mode
;*** Start Dual Nozzle/Bed Preheating ***
M140 S60 ; start preheating the bed
M104 S210.0 ﻿T0 ; start preheating hotend
G28 ; home
M190 S60 ; heat to Cura Bed setting
M109 S210.0 ﻿T0 ; heat to Cura Hotend

;*** End Preheating ***

M300 S440 P200
M300 S660 P250
M300 S880 P300

; Ender 3 Custom Start G-code
G92 E0 ; Reset Extruder
G28 ; Home all axes
G1 Z2.0 F3000 ; Move Z Axis up little to prevent scratching of Heat Bed
G1 X0.1 Y20 Z0.3 F5000.0 ; Move to start position
G1 X0.1 Y200.0 Z0.3 F1500.0 E15 ; Draw the first line
G1 X0.4 Y200.0 Z0.3 F5000.0 ; Move to side a little
G1 X0.4 Y20 Z0.3 F1500.0 E30 ; Draw the second line
G92 E0 ; Reset Extruder
G1 Z2.0 F3000 ; Move Z Axis up little to prevent scratching of Heat Bed
G1 X5 Y20 Z0.3 F5000.0 ; Move over to prevent blob squish
G92 E0
G92 E0
G1 F2700 E-10
;LAYER_COUNT:240
;LAYER:0
M107
G1 F300 Z0.4
G0 F6000 X64.436 Y103.091 Z0.4
;TYPE:SKIRT
G1 F300 Z0.2
G1 F2700 E0
G1 F1200 X65.807 Y102.28 E0.05298
G1 X66.155 Y102.233 E0.06466
G1 X67.1 Y101.626 E0.10202
G1 X68.547 Y101.33 E0.15114
G1 X78.635 Y101.293 E0.48667
G1 X80.065 Y101.25 E0.53425
G1 X81.85 Y101.12 E0.59378
G1 X83.227 Y101.351 E0.64022
G1 X83.684 Y101.547 E0.65676
G1 X84.76 Y102.2 E0.69862
G1 X84.913 Y102.33 E0.7053
G1 X105.083 Y102.33 E1.37616
G1 X105.546 Y101.961 E1.39585
G1 X106.776 Y101.314 E1.44207
G1 X108.242 Y101.105 E1.49132
G1 X109.396 Y101.227 E1.52992
G1 X109.794 Y101.255 E1.54319
G1 X112.3 Y101.328 E1.62658
G1 X121.54 Y101.331 E1.9339
G1 X122.761 Y101.631 E1.97572
G1 X124.072 Y102.311 E2.02484
G1 X125.003 Y103.308 E2.07021
G1 X125.726 Y104.523 E2.11723
G1 X126.011 Y105.951 E2.16567
G1 X126.012 Y111.365 E2.34574
G1 X125.717 Y112.568 E2.38693
G1 X125.036 Y113.887 E2.43631
G1 X124.084 Y114.779 E2.4797
G1 X123.3 Y115.263 E2.51034
G1 X123.215 Y115.686 E2.52469
G1 X122.647 Y116.893 E2.56906
G1 X121.923 Y117.899 E2.61028
G1 X120.624 Y118.797 E2.66281
G1 X119.078 Y119.33 E2.7172
G1 X113.591 Y119.33 E2.8997
G1 X112.376 Y119.031 E2.94131
G1 X111.085 Y118.365 E2.98963
G1 X110.192 Y117.433 E3.03256
G1 X109.961 Y117.058 E3.04721
G1 X108.395 Y116.061 E3.10895
G1 X107.416 Y116 E3.14158
G1 X107.005 Y115.871 E3.15591
G1 X104.876 Y132.298 E3.70684
G1 X104.548 Y133.731 E3.75573
G1 X103.966 Y135.284 E3.8109
G1 X102.998 Y136.854 E3.87224
G1 X101.6 Y138.33 E3.93986
G1 X100.857 Y138.923 E3.97148
G1 X99.179 Y139.932 E4.0366
G1 X97.55 Y140.513 E4.09412
G1 X95.807 Y140.812 E4.15294
G1 X94.173 Y140.812 E4.20729
G1 X92.41 Y140.51 E4.26678
G1 X91.022 Y140.014 E4.31581
G1 X89.375 Y139.129 E4.37799
G1 X87.804 Y137.776 E4.44695
G1 X86.902 Y136.754 E4.49229
G1 X85.996 Y135.182 E4.55264
G1 X85.425 Y133.812 E4.602
G1 X85.068 Y132.107 E4.65994
G1 X82.97 Y115.851 E5.2051
G1 X82.385 Y115.999 E5.22517
G1 X81.579 Y116.047 E5.25203
G1 X81.305 Y116.219 E5.26279
G1 X79.973 Y117.123 E5.31633
G1 X79.412 Y117.876 E5.34756
G1 X78.209 Y118.761 E5.39723
G1 X76.623 Y119.33 E5.45328
G1 X71.082 Y119.33 E5.63757
G1 X69.869 Y119.032 E5.67911
G1 X68.578 Y118.365 E5.72745
G1 X67.661 Y117.389 E5.77199
G1 X66.922 Y116.203 E5.81847
G1 X66.731 Y115.281 E5.84978
G1 X66.241 Y115.029 E5.86811
G1 X66.01 Y114.855 E5.87773
G1 X65.679 Y114.762 E5.88916
G1 X64.404 Y114.1 E5.93694
G1 X63.473 Y113.103 E5.98232
G1 X62.75 Y111.888 E6.02934
G1 X62.465 Y110.46 E6.07777
G1 X62.465 Y106.547 E6.20792
G1 X62.765 Y105.326 E6.24974
G1 X63.444 Y104.017 E6.29878
G1 X64.436 Y103.091 E6.34392
G0 F6000 X64.676 Y103.414
G1 F1200 X63.767 Y104.262 E6.38527
G1 X63.141 Y105.469 E6.43049
G1 X62.865 Y106.593 E6.46898
G1 X62.865 Y110.422 E6.59634
G1 X63.128 Y111.74 E6.64104
G1 X63.797 Y112.864 E6.68454
G1 X64.649 Y113.777 E6.72608
G1 X65.863 Y114.407 E6.77157
G1 X66.191 Y114.487 E6.7828
G1 X66.424 Y114.673 E6.79271
G1 X67.084 Y115.013 E6.81741
G1 X67.3 Y116.052 E6.8527
G1 X67.981 Y117.146 E6.89556
G1 X68.822 Y118.041 E6.93641
G1 X70.012 Y118.656 E6.98096
G1 X71.128 Y118.93 E7.01918
G1 X76.552 Y118.93 E7.19959
G1 X78.021 Y118.403 E7.2515
G1 X79.126 Y117.59 E7.29712
G1 X79.692 Y116.83 E7.32864
G1 X81.092 Y115.88 E7.38491
G1 X81.452 Y115.654 E7.39905
G1 X82.319 Y115.603 E7.42794
G1 X83.309 Y115.351 E7.46192
G1 X85.465 Y132.056 E8.02213
G1 X85.808 Y133.693 E8.07776
G1 X86.343 Y134.982 E8.12418
G1 X87.229 Y136.52 E8.18322
G1 X88.104 Y137.511 E8.22719
G1 X89.603 Y138.797 E8.29288
G1 X91.157 Y139.637 E8.35163
G1 X92.516 Y140.123 E8.39964
G1 X94.205 Y140.412 E8.45663
G1 X95.774 Y140.412 E8.50881
G1 X97.447 Y140.125 E8.56527
G1 X99.007 Y139.569 E8.62035
G1 X100.607 Y138.61 E8.6824
G1 X101.35 Y138.017 E8.71401
G1 X102.679 Y136.609 E8.77841
G1 X103.605 Y135.106 E8.83713
G1 X104.173 Y133.591 E8.89094
G1 X104.479 Y132.247 E8.93679
G1 X106.669 Y115.346 E9.50362
G1 X107.492 Y115.604 E9.5323
G1 X108.465 Y115.664 E9.56473
G1 X108.635 Y115.739 E9.57091
G1 X110.255 Y116.771 E9.63479
G1 X110.511 Y117.187 E9.65104
G1 X111.33 Y118.042 E9.69042
G1 X112.516 Y118.654 E9.73481
G1 X113.638 Y118.93 E9.77324
G1 X119.012 Y118.93 E9.95198
G1 X120.442 Y118.437 E10.00229
G1 X121.637 Y117.611 E10.0506
G1 X122.302 Y116.687 E10.08847
G1 X122.833 Y115.559 E10.12993
G1 X122.942 Y115.014 E10.14842
G1 X123.837 Y114.462 E10.18339
G1 X124.713 Y113.641 E10.22332
G1 X125.339 Y112.429 E10.2687
G1 X125.612 Y111.315 E10.30684
G1 X125.611 Y105.989 E10.48399
G1 X125.348 Y104.671 E10.52869
G1 X124.679 Y103.547 E10.57219
G1 X123.827 Y102.634 E10.61373
G1 X122.618 Y102.007 E10.65903
G1 X121.494 Y101.731 E10.69752
G1 X112.288 Y101.728 E11.00371
G1 X109.779 Y101.655 E11.0872
G1 X109.354 Y101.625 E11.10137
G1 X108.248 Y101.508 E11.13836
G1 X106.901 Y101.7 E11.18361
G1 X105.766 Y102.297 E11.22627
G1 X105.223 Y102.73 E11.24937
G1 X84.756 Y102.73 E11.9301
G1 X84.552 Y102.541 E11.93935
G1 X83.526 Y101.915 E11.97933
G1 X83.109 Y101.736 E11.99442
G1 X81.834 Y101.522 E12.03742
G1 X80.083 Y101.65 E12.09581
G1 X78.647 Y101.693 E12.1436
G1 X68.589 Y101.73 E12.47813
G1 X67.254 Y102.003 E12.52345
G1 X66.298 Y102.617 E12.56124
G1 X65.942 Y102.665 E12.57319
G1 X64.676 Y103.414 E12.62211
G0 F6000 X64.919 Y103.735
G1 F1200 X66.077 Y103.05 E12.66686
G1 X66.441 Y103.001 E12.67908
G1 X67.408 Y102.38 E12.7173
G1 X68.631 Y102.13 E12.75882
G1 X78.659 Y102.093 E13.09236
G1 X80.101 Y102.05 E13.14034
G1 X81.813 Y101.925 E13.19743
G1 X82.995 Y102.123 E13.23729
G1 X83.368 Y102.283 E13.25079
G1 X84.343 Y102.882 E13.28885
G1 X84.589 Y103.13 E13.30047
G1 X105.363 Y103.13 E13.99142
G1 X105.986 Y102.633 E14.01792
G1 X107.026 Y102.086 E14.05701
G1 X108.254 Y101.911 E14.09826
G1 X109.312 Y102.023 E14.13365
G1 X109.764 Y102.055 E14.14872
G1 X112.276 Y102.128 E14.2323
G1 X121.447 Y102.131 E14.53733
G1 X122.476 Y102.384 E14.57258
G1 X123.58 Y102.956 E14.61393
G1 X124.357 Y103.789 E14.65182
G1 X124.97 Y104.819 E14.69168
G1 X125.211 Y106.027 E14.73265
G1 X125.212 Y111.269 E14.907
G1 X124.962 Y112.288 E14.9419
G1 X124.391 Y113.394 E14.9833
G1 X123.593 Y114.142 E15.01968
G1 X122.538 Y114.792 E15.06089
G1 X122.526 Y115.055 E15.06965
G1 X122.451 Y115.432 E15.08243
G1 X121.957 Y116.481 E15.121
G1 X121.351 Y117.323 E15.1555
G1 X120.26 Y118.077 E15.19961
G1 X118.946 Y118.53 E15.24584
G1 X113.685 Y118.53 E15.42082
G1 X112.656 Y118.277 E15.45607
G1 X111.575 Y117.719 E15.49653
G1 X110.83 Y116.941 E15.53236
G1 X110.549 Y116.484 E15.5502
G1 X108.824 Y115.385 E15.61823
G1 X108.604 Y115.288 E15.62622
G1 X108.35 Y115.256 E15.63474
G1 X107.568 Y115.208 E15.6608
G1 X106.615 Y114.909 E15.69402
G1 X106.342 Y114.755 E15.70444
G1 X104.082 Y132.196 E16.28938
G1 X103.798 Y133.451 E16.33218
G1 X103.244 Y134.928 E16.38465
G1 X102.359 Y136.364 E16.44075
G1 X101.1 Y137.704 E16.5019
G1 X100.357 Y138.297 E16.53352
G1 X98.838 Y139.205 E16.59238
G1 X97.344 Y139.737 E16.64513
G1 X95.741 Y140.012 E16.69923
G1 X94.238 Y140.012 E16.74922
G1 X92.621 Y139.735 E16.80378
G1 X91.292 Y139.26 E16.85072
G1 X89.832 Y138.467 E16.90598
G1 X88.404 Y137.246 E16.96847
G1 X87.556 Y136.286 E17.01107
G1 X86.69 Y134.782 E17.0688
G1 X86.191 Y133.572 E17.11233
G1 X85.862 Y132.005 E17.16559
G1 X83.634 Y114.741 E17.74455
G1 X83.33 Y114.933 E17.75651
G1 X82.255 Y115.206 E17.7934
G1 X81.438 Y115.254 E17.82062
G1 X81.273 Y115.294 E17.82627
G1 X80.868 Y115.548 E17.84217
G1 X79.587 Y116.413 E17.89358
G1 X79.378 Y116.562 E17.90211
G1 X79.308 Y116.676 E17.90656
G1 X78.84 Y117.304 E17.93261
G1 X77.833 Y118.045 E17.9742
G1 X76.481 Y118.53 E18.02197
G1 X71.174 Y118.53 E18.19848
G1 X70.155 Y118.28 E18.23338
G1 X69.066 Y117.717 E18.27415
G1 X68.301 Y116.903 E18.31131
G1 X67.678 Y115.902 E18.35052
G1 X67.437 Y114.745 E18.38983
G1 X66.607 Y114.317 E18.42089
G1 X66.378 Y114.121 E18.43091
G1 X66.002 Y114.029 E18.44379
G1 X64.896 Y113.455 E18.48523
G1 X64.119 Y112.622 E18.52312
G1 X63.506 Y111.592 E18.56299
G1 X63.265 Y110.384 E18.60396
G1 X63.265 Y106.64 E18.72848
G1 X63.518 Y105.611 E18.76373
G1 X64.089 Y104.509 E18.80501
G1 X64.919 Y103.735 E18.84276
G0 F6000 X65.162 Y104.056
G1 F1200 X66.211 Y103.435 E18.8833
G1 X66.617 Y103.38 E18.89693
G1 X66.725 Y103.294 E18.90152
G1 X67.562 Y102.757 E18.93459
G1 X68.673 Y102.53 E18.97231
G1 X78.671 Y102.493 E19.30485
G1 X80.119 Y102.45 E19.35303
G1 X81.797 Y102.327 E19.40899
G1 X82.877 Y102.508 E19.44541
G1 X83.21 Y102.651 E19.45747
G1 X84.133 Y103.222 E19.49356
G1 X84.412 Y103.53 E19.50739
G1 X105.534 Y103.53 E20.20991
G1 X105.631 Y103.426 E20.21464
G1 X106.206 Y102.969 E20.23907
G1 X107.151 Y102.472 E20.27458
G1 X108.26 Y102.314 E20.31184
G1 X109.27 Y102.421 E20.34562
G1 X109.749 Y102.455 E20.36159
G1 X112.264 Y102.528 E20.44527
G1 X121.401 Y102.531 E20.74917
G1 X122.333 Y102.76 E20.78109
G1 X123.333 Y103.278 E20.81855
G1 X124.035 Y104.031 E20.85279
G1 X124.592 Y104.967 E20.88902
G1 X124.811 Y106.065 E20.92626
G1 X124.812 Y111.223 E21.09781
G1 X124.586 Y112.145 E21.12938
G1 X124.068 Y113.148 E21.16693
G1 X123.349 Y113.822 E21.19971
G1 X122.412 Y114.399 E21.23631
G1 X122.152 Y114.471 E21.24528
G1 X122.126 Y115.037 E21.26413
G1 X122.069 Y115.305 E21.27324
G1 X121.612 Y116.275 E21.3089
G1 X121.065 Y117.035 E21.34005
G1 X120.078 Y117.717 E21.37995
G1 X118.88 Y118.13 E21.4221
G1 X113.731 Y118.13 E21.59335
G1 X112.799 Y117.901 E21.62527
G1 X111.819 Y117.395 E21.66196
G1 X111.149 Y116.696 E21.69416
G1 X110.888 Y116.272 E21.71072
G1 X110.635 Y116.065 E21.72159
G1 X109.195 Y115.147 E21.77839
G1 X108.972 Y115.013 E21.78705
G1 X108.713 Y114.898 E21.79647
G1 X108.391 Y114.858 E21.80726
G1 X107.644 Y114.812 E21.83216
G1 X106.735 Y114.527 E21.86384
G1 X106.15 Y114.169 E21.88665
G1 X105.993 Y114.508 E21.89908
G1 X105.935 Y114.778 E21.90826
G1 X103.685 Y132.145 E22.49072
G1 X103.423 Y133.311 E22.53047
G1 X102.882 Y134.754 E22.58172
G1 X102.04 Y136.119 E22.63507
G1 X100.85 Y137.391 E22.693
G1 X100.107 Y137.984 E22.72462
G1 X98.665 Y138.842 E22.78043
G1 X97.241 Y139.349 E22.8307
G1 X95.708 Y139.612 E22.88244
G1 X94.27 Y139.612 E22.93026
G1 X92.727 Y139.348 E22.98233
G1 X91.427 Y138.883 E23.02825
G1 X90.057 Y138.134 E23.08018
G1 X88.704 Y136.981 E23.13931
G1 X87.881 Y136.049 E23.18066
G1 X87.06 Y134.63 E23.23519
G1 X86.574 Y133.451 E23.2776
G1 X86.259 Y131.954 E23.32848
G1 X84.04 Y114.761 E23.90507
G1 X83.965 Y114.404 E23.9172
G1 X83.817 Y114.154 E23.92686
G1 X83.17 Y114.56 E23.95227
G1 X82.19 Y114.809 E23.9859
G1 X81.376 Y114.857 E24.01302
G1 X81.164 Y114.908 E24.02027
G1 X80.936 Y115.033 E24.02892
G1 X80.644 Y115.216 E24.04038
G1 X79.363 Y116.081 E24.09179
G1 X79.077 Y116.285 E24.10348
G1 X78.987 Y116.437 E24.10935
G1 X78.554 Y117.018 E24.13345
G1 X77.645 Y117.687 E24.17099
G1 X76.41 Y118.13 E24.21463
G1 X71.22 Y118.13 E24.38725
G1 X70.298 Y117.904 E24.41882
G1 X69.31 Y117.393 E24.45582
G1 X68.621 Y116.66 E24.48928
G1 X68.056 Y115.752 E24.52485
G1 X67.847 Y114.749 E24.55893
G1 X67.822 Y114.448 E24.56897
G1 X67.61 Y114.386 E24.57632
G1 X66.832 Y113.983 E24.60546
G1 X66.566 Y113.756 E24.61709
G1 X66.144 Y113.652 E24.63155
G1 X65.143 Y113.133 E24.66905
G1 X64.441 Y112.38 E24.70329
G1 X63.884 Y111.444 E24.73952
G1 X63.665 Y110.346 E24.77676
G1 X63.665 Y106.686 E24.89849
G1 X63.894 Y105.754 E24.93041
G1 X64.411 Y104.756 E24.96779
G1 X65.162 Y104.056 E25.00194
G0 F6000 X65.405 Y104.377
G1 F1200 X66.346 Y103.82 E25.03831
G1 X66.787 Y103.76 E25.05311
G1 X66.941 Y103.631 E25.05979
G1 X67.716 Y103.134 E25.09041
G1 X68.715 Y102.93 E25.12433
G1 X78.683 Y102.893 E25.45586
G1 X80.137 Y102.85 E25.50425
G1 X81.777 Y102.73 E25.55894
G1 X82.763 Y102.895 E25.59219
G1 X83.052 Y103.019 E25.60265
G1 X83.874 Y103.532 E25.63488
G1 X84.235 Y103.93 E25.65275
G1 X105.722 Y103.93 E26.36741
G1 X105.88 Y103.739 E26.37565
G1 X106.426 Y103.305 E26.39885
G1 X107.276 Y102.858 E26.43079
G1 X108.266 Y102.717 E26.46405
G1 X109.228 Y102.819 E26.49623
G1 X109.734 Y102.855 E26.5131
G1 X112.252 Y102.928 E26.59688
G1 X121.355 Y102.931 E26.89965
G1 X122.19 Y103.136 E26.92825
G1 X123.086 Y103.6 E26.96181
G1 X123.713 Y104.273 E26.9924
G1 X124.214 Y105.115 E27.02499
G1 X124.411 Y106.103 E27.0585
G1 X124.412 Y111.173 E27.22713
G1 X124.208 Y112.006 E27.25565
G1 X123.745 Y112.902 E27.2892
G1 X123.105 Y113.502 E27.31837
G1 X122.202 Y114.058 E27.35364
G1 X121.846 Y114.114 E27.36563
G1 X121.75 Y114.413 E27.37607
G1 X121.726 Y115.021 E27.39631
G1 X121.688 Y115.175 E27.40159
G1 X121.267 Y116.069 E27.43446
G1 X120.779 Y116.747 E27.46224
G1 X119.896 Y117.357 E27.49793
G1 X118.814 Y117.73 E27.536
G1 X113.777 Y117.73 E27.70353
G1 X112.942 Y117.525 E27.73213
G1 X112.063 Y117.071 E27.76503
G1 X111.465 Y116.447 E27.79378
G1 X111.193 Y116.006 E27.81101
G1 X110.867 Y115.739 E27.82503
G1 X109.401 Y114.804 E27.88286
G1 X109.159 Y114.659 E27.89224
G1 X108.82 Y114.508 E27.90459
G1 X108.432 Y114.46 E27.91759
G1 X107.72 Y114.416 E27.94132
G1 X106.9 Y114.159 E27.9699
G1 X106.073 Y113.653 E28.00214
G1 X105.838 Y113.91 E28.01373
G1 X105.712 Y114.128 E28.0221
G1 X105.609 Y114.392 E28.03153
G1 X105.54 Y114.715 E28.04251
G1 X103.288 Y132.094 E28.62537
G1 X103.048 Y133.171 E28.66207
G1 X102.52 Y134.58 E28.71212
G1 X101.723 Y135.872 E28.76261
G1 X100.6 Y137.078 E28.81742
G1 X99.857 Y137.671 E28.84904
G1 X98.495 Y138.478 E28.90169
G1 X97.138 Y138.961 E28.9496
G1 X95.675 Y139.212 E28.99897
G1 X94.303 Y139.212 E29.0446
G1 X92.832 Y138.96 E29.09424
G1 X91.562 Y138.506 E29.1391
G1 X90.287 Y137.804 E29.18751
G1 X89.004 Y136.716 E29.24346
G1 X88.207 Y135.813 E29.28352
G1 X87.43 Y134.477 E29.33492
G1 X86.956 Y133.328 E29.37626
G1 X86.656 Y131.903 E29.4247
G1 X84.436 Y114.701 E30.00158
G1 X84.342 Y114.256 E30.01671
G1 X84.138 Y113.911 E30.03004
G1 X83.888 Y113.607 E30.04313
G1 X83.757 Y113.719 E30.04886
G1 X83.01 Y114.188 E30.0782
G1 X82.126 Y114.412 E30.10853
G1 X81.314 Y114.46 E30.13559
G1 X81.019 Y114.531 E30.14568
G1 X80.729 Y114.69 E30.15668
G1 X80.42 Y114.884 E30.16881
G1 X79.139 Y115.749 E30.22022
G1 X78.773 Y116.011 E30.23519
G1 X78.666 Y116.198 E30.24236
G1 X78.268 Y116.732 E30.26451
G1 X77.457 Y117.329 E30.29801
G1 X76.339 Y117.73 E30.33751
G1 X71.27 Y117.73 E30.50611
G1 X70.437 Y117.526 E30.53463
G1 X69.554 Y117.069 E30.5677
G1 X68.941 Y116.417 E30.59746
G1 X68.432 Y115.599 E30.62951
G1 X68.246 Y114.715 E30.65955
G1 X68.202 Y114.196 E30.67688
G1 X68.126 Y114.108 E30.68075
G1 X67.794 Y114.031 E30.69208
G1 X67.016 Y113.628 E30.72122
G1 X66.763 Y113.393 E30.73271
G1 X66.287 Y113.276 E30.74901
G1 X65.39 Y112.811 E30.78262
G1 X64.763 Y112.138 E30.81321
G1 X64.262 Y111.296 E30.8458
G1 X64.065 Y110.308 E30.8793
G1 X64.065 Y106.732 E30.99824
